storage/app/icons/phosphoricons/fill/laptop-fill.svg

<svg xmlns="http://www.w3.org/2000/svg" fill="currentColor" viewBox="0 0 256 256"><path d="M232 168h-8V72a24 24 0 0 0-24-24H56a24 24 0 0 0-24 24v96h-8a8 8 0 0 0-8 8v16a24 24 0 0 0 24 24h176a24 24 0 0 0 24-24v-16a8 8 0 0 0-8-8M112 72h32a8 8 0 0 1 0 16h-32a8 8 0 0 1 0-16m112 120a8 8 0 0 1-8 8H40a8 8 0 0 1-8-8v-8h192Z"/></svg>

<svg xmlns="http://www.w3.org/2000/svg" viewBox="0 0 256 256" fill="currentColor"><path d="M232,168h-8V72a24,24,0,0,0-24-24H56A24,24,0,0,0,32,72v96H24a8,8,0,0,0-8,8v16a24,24,0,0,0,24,24H216a24,24,0,0,0,24-24V176A8,8,0,0,0,232,168ZM112,72h32a8,8,0,0,1,0,16H112a8,8,0,0,1,0-16ZM224,192a8,8,0,0,1-8,8H40a8,8,0,0,1-8-8v-8H224Z"/></svg>
